X:40
T:John Dwyer's
M:C|X:2
L:1/8
R:reel
K:G
ge|dBBA GEDE|GB~B2 dBGB|A2 AB AGED|(3EFG AB c2Bc|
dBBA GEDE|GB~B2 dBGA|B2 BA BcdB|AGAB G2:|
|:ga|bg ~g2 | bg ~g2|af ~f2 af ~f2| bg ~g2 bgag|eaag a2ga|
bg ~g2 agef|g2 ge dBGA|B2 BA BcdB|AGAB G2:|
